public/images/case-studies/speakinc/feature5.svg

<svg width="64" height="64" viewBox="0 0 64 64" fill="none" xmlns="http://www.w3.org/2000/svg">
<path d="M47.5943 39.9426C44.4971 39.9426 41.745 41.4477 40.0302 43.7645L25.2663 36.2196C25.514 35.3781 25.6475 34.4882 25.6475 33.5676C25.6475 32.3207 25.4031 31.13 24.9605 30.0401L40.434 20.7433C42.1605 22.7697 44.7297 24.0573 47.5943 24.0573C52.7806 24.0573 57 19.8379 57 14.6516C57 9.46526 52.7806 5.24585 47.5943 5.24585C42.4079 5.24585 38.1885 9.46526 38.1885 14.6516C38.1885 15.8503 38.4144 16.9971 38.825 18.0523L23.3128 27.3723C21.5876 25.4057 19.0574 24.1618 16.2418 24.1618C11.0555 24.1618 6.83606 28.3812 6.83606 33.5676C6.83606 38.7539 11.0555 42.9733 16.2418 42.9733C19.3898 42.9733 22.1812 41.4186 23.8894 39.0369L38.6104 46.5599C38.3363 47.4413 38.1885 48.3778 38.1885 49.3483C38.1885 54.5346 42.4079 58.754 47.5943 58.754C52.7806 58.754 57 54.5346 57 49.3483C57 44.162 52.7806 39.9426 47.5943 39.9426ZM47.5943 8.3811C51.0518 8.3811 53.8647 11.194 53.8647 14.6516C53.8647 18.1091 51.0518 20.9221 47.5943 20.9221C44.1367 20.9221 41.3238 18.1091 41.3238 14.6516C41.3238 11.194 44.1367 8.3811 47.5943 8.3811ZM16.2418 39.8381C12.7842 39.8381 9.97131 37.0251 9.97131 33.5676C9.97131 30.11 12.7842 27.2971 16.2418 27.2971C19.6993 27.2971 22.5123 30.11 22.5123 33.5676C22.5123 37.0251 19.6993 39.8381 16.2418 39.8381ZM47.5943 55.6188C44.1367 55.6188 41.3238 52.8059 41.3238 49.3483C41.3238 45.8908 44.1367 43.0778 47.5943 43.0778C51.0518 43.0778 53.8647 45.8908 53.8647 49.3483C53.8647 52.8059 51.0518 55.6188 47.5943 55.6188Z" fill="#7F8284"/>
<path fill-rule="evenodd" clip-rule="evenodd" d="M16 39.8333C19.2217 39.8333 21.8333 37.2217 21.8333 34C21.8333 30.7783 19.2217 28.1667 16 28.1667C12.7783 28.1667 10.1667 30.7783 10.1667 34C10.1667 37.2217 12.7783 39.8333 16 39.8333ZM16 44C21.5228 44 26 39.5228 26 34C26 28.4772 21.5228 24 16 24C10.4772 24 6 28.4772 6 34C6 39.5228 10.4772 44 16 44Z" fill="#FF6B00"/>
</svg>

<svg xmlns="http://www.w3.org/2000/svg" width="64" height="64" fill="none" xmlns:v="https://vecta.io/nano"><path d="M47.594 39.943c-3.097 0-5.849 1.505-7.564 3.822L25.266 36.22a9.38 9.38 0 0 0 .381-2.652c0-1.247-.244-2.438-.687-3.527l15.473-9.297c1.727 2.026 4.296 3.314 7.16 3.314A9.42 9.42 0 0 0 57 14.652a9.42 9.42 0 0 0-9.406-9.406 9.42 9.42 0 0 0-9.406 9.406 9.36 9.36 0 0 0 .637 3.401l-15.512 9.32c-1.725-1.967-4.255-3.21-7.071-3.21a9.42 9.42 0 0 0-9.406 9.406 9.42 9.42 0 0 0 9.406 9.406 9.4 9.4 0 0 0 7.648-3.936L38.61 46.56c-.274.881-.422 1.818-.422 2.788a9.42 9.42 0 0 0 9.406 9.406A9.42 9.42 0 0 0 57 49.348a9.42 9.42 0 0 0-9.406-9.406zm0-31.561a6.28 6.28 0 0 1 6.27 6.271 6.28 6.28 0 0 1-6.27 6.271 6.28 6.28 0 0 1-6.27-6.27 6.28 6.28 0 0 1 6.27-6.27zM16.242 39.838a6.28 6.28 0 0 1-6.27-6.27 6.28 6.28 0 0 1 6.27-6.27 6.28 6.28 0 0 1 6.27 6.27 6.28 6.28 0 0 1-6.27 6.27zm31.352 15.781a6.28 6.28 0 0 1-6.27-6.27 6.28 6.28 0 0 1 6.27-6.27 6.28 6.28 0 0 1 6.27 6.27 6.28 6.28 0 0 1-6.27 6.27z" fill="#7f8284"/><path fill-rule="evenodd" d="M16 39.833c3.222 0 5.833-2.612 5.833-5.833S19.222 28.167 16 28.167 10.167 30.778 10.167 34s2.612 5.833 5.833 5.833zM16 44c5.523 0 10-4.477 10-10s-4.477-10-10-10S6 28.477 6 34s4.477 10 10 10z" fill="#ff6b00"/></svg>
